images/wbw-icon.svg

<svg xmlns="http://www.w3.org/2000/svg" xmlns:xlink="http://www.w3.org/1999/xlink" width="93" zoomAndPan="magnify" viewBox="0 0 69.75 81.749997" height="109" preserveAspectRatio="xMidYMid meet" version="1.0"><defs><clipPath id="e6222776d3"><path d="M 0 0.0195312 L 69.5 0.0195312 L 69.5 80.730469 L 0 80.730469 Z M 0 0.0195312 " clip-rule="nonzero"/></clipPath></defs><g clip-path="url(#e6222776d3)"><path fill="#d5ba2b" d="M 27.324219 12.042969 L 37 23.605469 L 37 30.78125 C 34.816406 29.941406 32.460938 29.496094 30.027344 29.492188 C 29.695312 29.492188 29.367188 29.625 29.128906 29.863281 C 28.890625 30.101562 28.757812 30.425781 28.757812 30.761719 C 28.777344 35.933594 30.753906 40.742188 34.320312 44.304688 C 37.882812 47.867188 42.695312 49.839844 47.863281 49.859375 C 47.863281 49.859375 47.867188 49.859375 47.867188 49.859375 C 47.871094 49.859375 47.871094 49.859375 47.871094 49.859375 C 53.042969 49.839844 57.851562 47.867188 61.414062 44.304688 C 64.984375 40.734375 66.957031 35.921875 66.972656 30.761719 C 66.972656 30.425781 66.839844 30.101562 66.601562 29.863281 C 66.363281 29.625 66.042969 29.492188 65.707031 29.492188 C 65.707031 29.492188 65.703125 29.492188 65.703125 29.492188 C 63.269531 29.496094 60.914062 29.941406 58.730469 30.78125 L 58.730469 23.605469 L 68.40625 12.042969 C 68.453125 11.988281 68.496094 11.929688 68.53125 11.863281 C 69.085938 10.902344 69.234375 9.78125 68.945312 8.707031 C 68.65625 7.636719 67.964844 6.738281 67.003906 6.183594 C 65.617188 5.390625 63.875 5.460938 62.554688 6.371094 C 61.988281 6.765625 61.625 7.242188 61.304688 7.667969 C 61.1875 7.820312 61.078125 7.964844 60.96875 8.097656 L 54.195312 15.984375 C 53.390625 16.914062 52.363281 17.390625 51.132812 17.390625 L 44.597656 17.390625 C 43.367188 17.390625 42.339844 16.914062 41.539062 15.980469 L 34.765625 8.097656 C 34.65625 7.964844 34.546875 7.816406 34.429688 7.664062 C 34.109375 7.242188 33.746094 6.761719 33.171875 6.363281 C 31.855469 5.457031 30.113281 5.386719 28.734375 6.183594 C 26.742188 7.324219 26.054688 9.875 27.195312 11.863281 C 27.234375 11.925781 27.277344 11.988281 27.324219 12.042969 Z M 36.105469 42.515625 C 33.320312 39.730469 31.652344 36.0625 31.339844 32.074219 C 35.324219 32.386719 38.992188 34.050781 41.785156 36.839844 C 44.566406 39.621094 46.230469 43.289062 46.546875 47.277344 C 42.558594 46.960938 38.890625 45.296875 36.105469 42.515625 Z M 47.867188 41.6875 C 46.925781 39.210938 45.476562 36.953125 43.574219 35.046875 C 43.503906 34.976562 43.433594 34.910156 43.363281 34.84375 C 43.765625 31.664062 45.339844 28.625 47.867188 26.136719 C 50.390625 28.621094 51.96875 31.664062 52.371094 34.84375 C 52.300781 34.910156 52.230469 34.976562 52.160156 35.046875 C 50.253906 36.953125 48.804688 39.210938 47.867188 41.6875 Z M 64.386719 32.074219 C 64.078125 36.058594 62.410156 39.726562 59.625 42.515625 C 56.839844 45.296875 53.171875 46.960938 49.183594 47.277344 C 49.5 43.289062 51.164062 39.621094 53.945312 36.835938 C 56.734375 34.050781 60.402344 32.382812 64.386719 32.074219 Z M 29.996094 8.375 C 30.535156 8.0625 31.222656 8.089844 31.734375 8.441406 C 31.972656 8.609375 32.175781 8.878906 32.414062 9.191406 C 32.546875 9.371094 32.683594 9.550781 32.847656 9.742188 L 39.621094 17.628906 C 40.902344 19.125 42.625 19.917969 44.597656 19.917969 L 51.132812 19.917969 C 53.109375 19.917969 54.832031 19.125 56.113281 17.628906 L 62.886719 9.742188 C 63.046875 9.550781 63.1875 9.371094 63.320312 9.191406 C 63.558594 8.878906 63.761719 8.609375 63.996094 8.449219 C 64.519531 8.085938 65.1875 8.058594 65.742188 8.375 C 66.121094 8.59375 66.390625 8.945312 66.503906 9.367188 C 66.609375 9.753906 66.566406 10.160156 66.386719 10.515625 L 56.492188 22.335938 C 56.300781 22.5625 56.199219 22.847656 56.199219 23.144531 L 56.199219 31.972656 C 55.652344 32.28125 55.121094 32.621094 54.605469 32.984375 C 53.789062 29.425781 51.742188 26.109375 48.695312 23.460938 C 48.21875 23.046875 47.511719 23.046875 47.035156 23.460938 C 43.988281 26.109375 41.945312 29.429688 41.128906 32.984375 C 40.609375 32.621094 40.078125 32.28125 39.53125 31.972656 L 39.53125 23.144531 C 39.53125 22.847656 39.425781 22.558594 39.234375 22.332031 L 29.34375 10.519531 C 28.960938 9.753906 29.242188 8.808594 29.996094 8.375 Z M 68.4375 52.269531 C 67.023438 49.675781 63.757812 48.710938 61.160156 50.121094 L 50.191406 56.089844 C 50.179688 56.058594 50.164062 56.027344 50.148438 55.996094 C 49.492188 54.71875 48.382812 53.777344 47.023438 53.339844 C 43.242188 52.121094 39.460938 50.902344 35.679688 49.683594 L 32.921875 48.796875 C 28.808594 47.472656 24.796875 47.847656 21.003906 49.910156 L 11.089844 55.308594 L 10.046875 53.5 C 9.738281 52.964844 9.234375 52.578125 8.632812 52.414062 C 8.027344 52.253906 7.398438 52.335938 6.859375 52.644531 L 1.535156 55.714844 C 0.417969 56.359375 0.0351562 57.792969 0.679688 58.90625 L 12.65625 79.695312 C 12.964844 80.234375 13.46875 80.617188 14.074219 80.78125 C 14.273438 80.835938 14.480469 80.863281 14.683594 80.863281 C 15.089844 80.863281 15.484375 80.757812 15.84375 80.550781 L 21.164062 77.488281 C 22.28125 76.851562 22.667969 75.421875 22.027344 74.296875 L 21.035156 72.578125 L 21.460938 72.347656 C 23.660156 71.152344 25.984375 70.933594 28.375 71.703125 L 33.53125 73.363281 C 34.730469 73.746094 35.914062 73.941406 37.085938 73.941406 C 38.917969 73.941406 40.707031 73.46875 42.4375 72.527344 L 66.285156 59.546875 C 67.542969 58.863281 68.457031 57.730469 68.867188 56.351562 C 69.269531 54.976562 69.121094 53.523438 68.4375 52.269531 Z M 14.75 78.261719 L 2.96875 57.808594 L 7.953125 54.933594 L 18.179688 72.683594 C 18.179688 72.6875 18.179688 72.691406 18.183594 72.691406 C 18.1875 72.699219 18.191406 72.707031 18.195312 72.710938 L 19.738281 75.390625 Z M 66.4375 55.636719 C 66.222656 56.367188 65.742188 56.964844 65.078125 57.324219 L 41.226562 70.304688 C 39.023438 71.503906 36.695312 71.722656 34.304688 70.957031 L 29.148438 69.296875 C 26.074219 68.304688 23.082031 68.585938 20.25 70.128906 L 19.773438 70.386719 L 12.351562 57.5 L 22.210938 52.132812 C 25.371094 50.410156 28.714844 50.097656 32.140625 51.203125 L 34.902344 52.089844 C 38.683594 53.308594 42.464844 54.523438 46.246094 55.746094 C 46.964844 55.976562 47.546875 56.476562 47.894531 57.152344 C 48.042969 57.445312 48.140625 57.753906 48.183594 58.070312 C 48.1875 58.085938 48.1875 58.101562 48.191406 58.121094 C 48.238281 58.519531 48.199219 58.925781 48.074219 59.316406 C 47.59375 60.800781 45.996094 61.625 44.507812 61.144531 C 42.507812 60.5 40.507812 59.855469 38.507812 59.210938 C 36.519531 58.570312 34.527344 57.929688 32.535156 57.289062 C 31.871094 57.074219 31.160156 57.4375 30.945312 58.105469 C 30.730469 58.769531 31.09375 59.480469 31.761719 59.695312 C 33.75 60.335938 35.742188 60.976562 37.734375 61.621094 C 39.730469 62.265625 41.730469 62.910156 43.734375 63.554688 C 46.546875 64.457031 49.574219 62.90625 50.480469 60.09375 C 50.628906 59.625 50.714844 59.148438 50.734375 58.671875 L 62.359375 52.34375 C 63.734375 51.597656 65.460938 52.105469 66.210938 53.476562 C 66.574219 54.140625 66.65625 54.90625 66.4375 55.636719 Z M 47.867188 16.195312 C 52.324219 16.195312 55.953125 12.566406 55.953125 8.109375 C 55.953125 3.648438 52.324219 0.0195312 47.867188 0.0195312 C 43.40625 0.0195312 39.78125 3.648438 39.78125 8.109375 C 39.78125 12.566406 43.40625 16.195312 47.867188 16.195312 Z M 47.867188 2.546875 C 50.929688 2.546875 53.421875 5.042969 53.421875 8.109375 C 53.421875 11.171875 50.929688 13.664062 47.867188 13.664062 C 44.800781 13.664062 42.308594 11.171875 42.308594 8.109375 C 42.308594 5.042969 44.800781 2.546875 47.867188 2.546875 Z M 47.867188 2.546875 " fill-opacity="1" fill-rule="nonzero"/><path fill="#d5ba2b" d="M 27.324219 12.042969 L 37 23.605469 L 37 30.78125 C 34.816406 29.941406 32.460938 29.496094 30.027344 29.492188 C 29.695312 29.492188 29.367188 29.625 29.128906 29.863281 C 28.890625 30.101562 28.757812 30.425781 28.757812 30.761719 C 28.777344 35.933594 30.753906 40.742188 34.320312 44.304688 C 37.882812 47.867188 42.695312 49.839844 47.863281 49.859375 C 47.863281 49.859375 47.867188 49.859375 47.867188 49.859375 C 47.871094 49.859375 47.871094 49.859375 47.871094 49.859375 C 53.042969 49.839844 57.851562 47.867188 61.414062 44.304688 C 64.984375 40.734375 66.957031 35.921875 66.972656 30.761719 C 66.972656 30.425781 66.839844 30.101562 66.601562 29.863281 C 66.363281 29.625 66.042969 29.492188 65.707031 29.492188 C 65.707031 29.492188 65.703125 29.492188 65.703125 29.492188 C 63.269531 29.496094 60.914062 29.941406 58.730469 30.78125 L 58.730469 23.605469 L 68.40625 12.042969 C 68.453125 11.988281 68.496094 11.929688 68.53125 11.863281 C 69.085938 10.902344 69.234375 9.78125 68.945312 8.707031 C 68.65625 7.636719 67.964844 6.738281 67.003906 6.183594 C 65.617188 5.390625 63.875 5.460938 62.554688 6.371094 C 61.988281 6.765625 61.625 7.242188 61.304688 7.667969 C 61.1875 7.820312 61.078125 7.964844 60.96875 8.097656 L 54.195312 15.984375 C 53.390625 16.914062 52.363281 17.390625 51.132812 17.390625 L 44.597656 17.390625 C 43.367188 17.390625 42.339844 16.914062 41.539062 15.980469 L 34.765625 8.097656 C 34.65625 7.964844 34.546875 7.816406 34.429688 7.664062 C 34.109375 7.242188 33.746094 6.761719 33.171875 6.363281 C 31.855469 5.457031 30.113281 5.386719 28.734375 6.183594 C 26.742188 7.324219 26.054688 9.875 27.195312 11.863281 C 27.234375 11.925781 27.277344 11.988281 27.324219 12.042969 Z M 36.105469 42.515625 C 33.320312 39.730469 31.652344 36.0625 31.339844 32.074219 C 35.324219 32.386719 38.992188 34.050781 41.785156 36.839844 C 44.566406 39.621094 46.230469 43.289062 46.546875 47.277344 C 42.558594 46.960938 38.890625 45.296875 36.105469 42.515625 Z M 47.867188 41.6875 C 46.925781 39.210938 45.476562 36.953125 43.574219 35.046875 C 43.503906 34.976562 43.433594 34.910156 43.363281 34.84375 C 43.765625 31.664062 45.339844 28.625 47.867188 26.136719 C 50.390625 28.621094 51.96875 31.664062 52.371094 34.84375 C 52.300781 34.910156 52.230469 34.976562 52.160156 35.046875 C 50.253906 36.953125 48.804688 39.210938 47.867188 41.6875 Z M 64.386719 32.074219 C 64.078125 36.058594 62.410156 39.726562 59.625 42.515625 C 56.839844 45.296875 53.171875 46.960938 49.183594 47.277344 C 49.5 43.289062 51.164062 39.621094 53.945312 36.835938 C 56.734375 34.050781 60.402344 32.382812 64.386719 32.074219 Z M 29.996094 8.375 C 30.535156 8.0625 31.222656 8.089844 31.734375 8.441406 C 31.972656 8.609375 32.175781 8.878906 32.414062 9.191406 C 32.546875 9.371094 32.683594 9.550781 32.847656 9.742188 L 39.621094 17.628906 C 40.902344 19.125 42.625 19.917969 44.597656 19.917969 L 51.132812 19.917969 C 53.109375 19.917969 54.832031 19.125 56.113281 17.628906 L 62.886719 9.742188 C 63.046875 9.550781 63.1875 9.371094 63.320312 9.191406 C 63.558594 8.878906 63.761719 8.609375 63.996094 8.449219 C 64.519531 8.085938 65.1875 8.058594 65.742188 8.375 C 66.121094 8.59375 66.390625 8.945312 66.503906 9.367188 C 66.609375 9.753906 66.566406 10.160156 66.386719 10.515625 L 56.492188 22.335938 C 56.300781 22.5625 56.199219 22.847656 56.199219 23.144531 L 56.199219 31.972656 C 55.652344 32.28125 55.121094 32.621094 54.605469 32.984375 C 53.789062 29.425781 51.742188 26.109375 48.695312 23.460938 C 48.21875 23.046875 47.511719 23.046875 47.035156 23.460938 C 43.988281 26.109375 41.945312 29.429688 41.128906 32.984375 C 40.609375 32.621094 40.078125 32.28125 39.53125 31.972656 L 39.53125 23.144531 C 39.53125 22.847656 39.425781 22.558594 39.234375 22.332031 L 29.34375 10.519531 C 28.960938 9.753906 29.242188 8.808594 29.996094 8.375 Z M 68.4375 52.269531 C 67.023438 49.675781 63.757812 48.710938 61.160156 50.121094 L 50.191406 56.089844 C 50.179688 56.058594 50.164062 56.027344 50.148438 55.996094 C 49.492188 54.71875 48.382812 53.777344 47.023438 53.339844 C 43.242188 52.121094 39.460938 50.902344 35.679688 49.683594 L 32.921875 48.796875 C 28.808594 47.472656 24.796875 47.847656 21.003906 49.910156 L 11.089844 55.308594 L 10.046875 53.5 C 9.738281 52.964844 9.234375 52.578125 8.632812 52.414062 C 8.027344 52.253906 7.398438 52.335938 6.859375 52.644531 L 1.535156 55.714844 C 0.417969 56.359375 0.0351562 57.792969 0.679688 58.90625 L 12.65625 79.695312 C 12.964844 80.234375 13.46875 80.617188 14.074219 80.78125 C 14.273438 80.835938 14.480469 80.863281 14.683594 80.863281 C 15.089844 80.863281 15.484375 80.757812 15.84375 80.550781 L 21.164062 77.488281 C 22.28125 76.851562 22.667969 75.421875 22.027344 74.296875 L 21.035156 72.578125 L 21.460938 72.347656 C 23.660156 71.152344 25.984375 70.933594 28.375 71.703125 L 33.53125 73.363281 C 34.730469 73.746094 35.914062 73.941406 37.085938 73.941406 C 38.917969 73.941406 40.707031 73.46875 42.4375 72.527344 L 66.285156 59.546875 C 67.542969 58.863281 68.457031 57.730469 68.867188 56.351562 C 69.269531 54.976562 69.121094 53.523438 68.4375 52.269531 Z M 14.75 78.261719 L 2.96875 57.808594 L 7.953125 54.933594 L 18.179688 72.683594 C 18.179688 72.6875 18.179688 72.691406 18.183594 72.691406 C 18.1875 72.699219 18.191406 72.707031 18.195312 72.710938 L 19.738281 75.390625 Z M 66.4375 55.636719 C 66.222656 56.367188 65.742188 56.964844 65.078125 57.324219 L 41.226562 70.304688 C 39.023438 71.503906 36.695312 71.722656 34.304688 70.957031 L 29.148438 69.296875 C 26.074219 68.304688 23.082031 68.585938 20.25 70.128906 L 19.773438 70.386719 L 12.351562 57.5 L 22.210938 52.132812 C 25.371094 50.410156 28.714844 50.097656 32.140625 51.203125 L 34.902344 52.089844 C 38.683594 53.308594 42.464844 54.523438 46.246094 55.746094 C 46.964844 55.976562 47.546875 56.476562 47.894531 57.152344 C 48.042969 57.445312 48.140625 57.753906 48.183594 58.070312 C 48.1875 58.085938 48.1875 58.101562 48.191406 58.121094 C 48.238281 58.519531 48.199219 58.925781 48.074219 59.316406 C 47.59375 60.800781 45.996094 61.625 44.507812 61.144531 C 42.507812 60.5 40.507812 59.855469 38.507812 59.210938 C 36.519531 58.570312 34.527344 57.929688 32.535156 57.289062 C 31.871094 57.074219 31.160156 57.4375 30.945312 58.105469 C 30.730469 58.769531 31.09375 59.480469 31.761719 59.695312 C 33.75 60.335938 35.742188 60.976562 37.734375 61.621094 C 39.730469 62.265625 41.730469 62.910156 43.734375 63.554688 C 46.546875 64.457031 49.574219 62.90625 50.480469 60.09375 C 50.628906 59.625 50.714844 59.148438 50.734375 58.671875 L 62.359375 52.34375 C 63.734375 51.597656 65.460938 52.105469 66.210938 53.476562 C 66.574219 54.140625 66.65625 54.90625 66.4375 55.636719 Z M 47.867188 16.195312 C 52.324219 16.195312 55.953125 12.566406 55.953125 8.109375 C 55.953125 3.648438 52.324219 0.0195312 47.867188 0.0195312 C 43.40625 0.0195312 39.78125 3.648438 39.78125 8.109375 C 39.78125 12.566406 43.40625 16.195312 47.867188 16.195312 Z M 47.867188 2.546875 C 50.929688 2.546875 53.421875 5.042969 53.421875 8.109375 C 53.421875 11.171875 50.929688 13.664062 47.867188 13.664062 C 44.800781 13.664062 42.308594 11.171875 42.308594 8.109375 C 42.308594 5.042969 44.800781 2.546875 47.867188 2.546875 Z M 47.867188 2.546875 " fill-opacity="1" fill-rule="nonzero"/></g></svg>

<svg xmlns="http://www.w3.org/2000/svg" width="93" height="109" viewBox="0 0 69.75 81.75"><defs><clipPath id="a"><path d="M0 .02h69.5v80.71H0Zm0 0"/></clipPath></defs><g fill="#d5ba2b" clip-path="url(#a)"><path d="M27.324 12.043 37 23.605v7.176a19.5 19.5 0 0 0-6.973-1.289c-.332 0-.66.133-.898.371a1.27 1.27 0 0 0-.371.899c.02 5.172 1.996 9.98 5.562 13.543 3.563 3.562 8.375 5.535 13.543 5.554h.008c5.172-.02 9.98-1.992 13.543-5.554 3.57-3.57 5.543-8.383 5.559-13.543 0-.336-.133-.66-.371-.899a1.26 1.26 0 0 0-.895-.37h-.004c-2.433.003-4.789.448-6.973 1.288v-7.176l9.676-11.562a1 1 0 0 0 .125-.18c.555-.96.703-2.082.414-3.156a4.15 4.15 0 0 0-1.941-2.523 4.2 4.2 0 0 0-4.45.187c-.566.395-.929.871-1.25 1.297-.117.152-.226.297-.335.43l-6.774 7.886c-.804.93-1.832 1.407-3.062 1.407h-6.535c-1.23 0-2.258-.477-3.059-1.41l-6.773-7.883c-.11-.133-.22-.282-.336-.434-.32-.422-.684-.902-1.258-1.3a4.165 4.165 0 0 0-5.977 5.5q.059.095.13.179m8.781 30.473c-2.785-2.786-4.453-6.453-4.765-10.442 3.984.313 7.652 1.977 10.445 4.766 2.781 2.781 4.445 6.45 4.762 10.437-3.988-.316-7.656-1.98-10.442-4.761m11.762-.828a18.9 18.9 0 0 0-4.293-6.641q-.105-.105-.21-.203c.402-3.18 1.976-6.219 4.503-8.707 2.524 2.484 4.102 5.527 4.504 8.707q-.105.099-.21.203a18.8 18.8 0 0 0-4.294 6.64m16.52-9.614c-.309 3.985-1.977 7.653-4.762 10.442-2.785 2.78-6.453 4.445-10.441 4.761.316-3.988 1.98-7.656 4.761-10.441 2.79-2.785 6.457-4.453 10.442-4.762M29.997 8.375a1.64 1.64 0 0 1 1.737.066c.239.168.442.438.68.75.133.18.27.36.434.551l6.773 7.887c1.281 1.496 3.004 2.289 4.977 2.289h6.535c1.976 0 3.699-.793 4.98-2.29l6.774-7.886c.16-.191.3-.37.433-.55.239-.313.442-.583.676-.743a1.62 1.62 0 0 1 1.746-.074c.38.219.649.57.762.992.105.387.062.793-.117 1.149l-9.895 11.82a1.25 1.25 0 0 0-.293.809v8.828c-.547.308-1.078.648-1.594 1.011-.816-3.558-2.863-6.875-5.91-9.523a1.265 1.265 0 0 0-1.66 0c-3.047 2.648-5.09 5.969-5.906 9.523-.52-.363-1.05-.703-1.598-1.011v-8.828c0-.297-.105-.586-.297-.813l-9.89-11.812a1.636 1.636 0 0 1 .652-2.145m38.44 43.895a5.38 5.38 0 0 0-7.277-2.149L50.191 56.09q-.018-.047-.043-.094a5.33 5.33 0 0 0-3.125-2.656L35.68 49.684l-2.758-.887c-4.113-1.324-8.125-.95-11.918 1.113L11.09 55.31 10.047 53.5a2.34 2.34 0 0 0-3.187-.855l-5.325 3.07a2.34 2.34 0 0 0-.855 3.191l11.976 20.79c.309.538.813.921 1.418 1.085a2.31 2.31 0 0 0 1.77-.23l5.32-3.063a2.34 2.34 0 0 0 .863-3.191l-.992-1.719.426-.23c2.2-1.196 4.523-1.414 6.914-.645l5.156 1.66q1.799.576 3.555.578c1.832 0 3.621-.472 5.352-1.414l23.847-12.98a5.34 5.34 0 0 0 2.582-3.195 5.35 5.35 0 0 0-.43-4.082M14.75 78.262 2.969 57.809l4.984-2.875 10.227 17.75q-.001.007.004.007l.011.02 1.543 2.68Zm51.688-22.625a2.8 2.8 0 0 1-1.36 1.687l-23.851 12.98c-2.204 1.2-4.532 1.419-6.922.653l-5.157-1.66c-3.074-.992-6.066-.711-8.898.832l-.477.258L12.352 57.5l9.859-5.367c3.16-1.723 6.504-2.035 9.93-.93l2.761.887c3.782 1.219 7.563 2.433 11.344 3.656.719.23 1.3.73 1.649 1.406.148.293.246.602.289.918q.004.023.007.051a2.8 2.8 0 0 1-.117 1.195 2.84 2.84 0 0 1-3.566 1.829l-6-1.934-5.973-1.922a1.26 1.26 0 0 0-1.59.816 1.26 1.26 0 0 0 .817 1.59q2.983.96 5.972 1.926 2.994.968 6 1.934a5.37 5.37 0 0 0 6.746-3.461c.149-.469.235-.946.254-1.422l11.625-6.328a2.85 2.85 0 0 1 3.852 1.133c.363.664.445 1.43.227 2.16m-18.57-39.442c4.456 0 8.085-3.629 8.085-8.086 0-4.46-3.629-8.09-8.086-8.09-4.46 0-8.086 3.63-8.086 8.09 0 4.457 3.625 8.086 8.086 8.086m0-13.648c3.062 0 5.554 2.496 5.554 5.562a5.56 5.56 0 0 1-5.555 5.555A5.56 5.56 0 0 1 42.31 8.11a5.566 5.566 0 0 1 5.558-5.562m0 0"/><path d="M27.324 12.043 37 23.605v7.176a19.5 19.5 0 0 0-6.973-1.289c-.332 0-.66.133-.898.371a1.27 1.27 0 0 0-.371.899c.02 5.172 1.996 9.98 5.562 13.543 3.563 3.562 8.375 5.535 13.543 5.554h.008c5.172-.02 9.98-1.992 13.543-5.554 3.57-3.57 5.543-8.383 5.559-13.543 0-.336-.133-.66-.371-.899a1.26 1.26 0 0 0-.895-.37h-.004c-2.433.003-4.789.448-6.973 1.288v-7.176l9.676-11.562a1 1 0 0 0 .125-.18c.555-.96.703-2.082.414-3.156a4.15 4.15 0 0 0-1.941-2.523 4.2 4.2 0 0 0-4.45.187c-.566.395-.929.871-1.25 1.297-.117.152-.226.297-.335.43l-6.774 7.886c-.804.93-1.832 1.407-3.062 1.407h-6.535c-1.23 0-2.258-.477-3.059-1.41l-6.773-7.883c-.11-.133-.22-.282-.336-.434-.32-.422-.684-.902-1.258-1.3a4.165 4.165 0 0 0-5.977 5.5q.059.095.13.179m8.781 30.473c-2.785-2.786-4.453-6.453-4.765-10.442 3.984.313 7.652 1.977 10.445 4.766 2.781 2.781 4.445 6.45 4.762 10.437-3.988-.316-7.656-1.98-10.442-4.761m11.762-.828a18.9 18.9 0 0 0-4.293-6.641q-.105-.105-.21-.203c.402-3.18 1.976-6.219 4.503-8.707 2.524 2.484 4.102 5.527 4.504 8.707q-.105.099-.21.203a18.8 18.8 0 0 0-4.294 6.64m16.52-9.614c-.309 3.985-1.977 7.653-4.762 10.442-2.785 2.78-6.453 4.445-10.441 4.761.316-3.988 1.98-7.656 4.761-10.441 2.79-2.785 6.457-4.453 10.442-4.762M29.997 8.375a1.64 1.64 0 0 1 1.737.066c.239.168.442.438.68.75.133.18.27.36.434.551l6.773 7.887c1.281 1.496 3.004 2.289 4.977 2.289h6.535c1.976 0 3.699-.793 4.98-2.29l6.774-7.886c.16-.191.3-.37.433-.55.239-.313.442-.583.676-.743a1.62 1.62 0 0 1 1.746-.074c.38.219.649.57.762.992.105.387.062.793-.117 1.149l-9.895 11.82a1.25 1.25 0 0 0-.293.809v8.828c-.547.308-1.078.648-1.594 1.011-.816-3.558-2.863-6.875-5.91-9.523a1.265 1.265 0 0 0-1.66 0c-3.047 2.648-5.09 5.969-5.906 9.523-.52-.363-1.05-.703-1.598-1.011v-8.828c0-.297-.105-.586-.297-.813l-9.89-11.812a1.636 1.636 0 0 1 .652-2.145m38.44 43.895a5.38 5.38 0 0 0-7.277-2.149L50.191 56.09q-.018-.047-.043-.094a5.33 5.33 0 0 0-3.125-2.656L35.68 49.684l-2.758-.887c-4.113-1.324-8.125-.95-11.918 1.113L11.09 55.31 10.047 53.5a2.34 2.34 0 0 0-3.187-.855l-5.325 3.07a2.34 2.34 0 0 0-.855 3.191l11.976 20.79c.309.538.813.921 1.418 1.085a2.31 2.31 0 0 0 1.77-.23l5.32-3.063a2.34 2.34 0 0 0 .863-3.191l-.992-1.719.426-.23c2.2-1.196 4.523-1.414 6.914-.645l5.156 1.66q1.799.576 3.555.578c1.832 0 3.621-.472 5.352-1.414l23.847-12.98a5.34 5.34 0 0 0 2.582-3.195 5.35 5.35 0 0 0-.43-4.082M14.75 78.262 2.969 57.809l4.984-2.875 10.227 17.75q-.001.007.004.007l.011.02 1.543 2.68Zm51.688-22.625a2.8 2.8 0 0 1-1.36 1.687l-23.851 12.98c-2.204 1.2-4.532 1.419-6.922.653l-5.157-1.66c-3.074-.992-6.066-.711-8.898.832l-.477.258L12.352 57.5l9.859-5.367c3.16-1.723 6.504-2.035 9.93-.93l2.761.887c3.782 1.219 7.563 2.433 11.344 3.656.719.23 1.3.73 1.649 1.406.148.293.246.602.289.918q.004.023.007.051a2.8 2.8 0 0 1-.117 1.195 2.84 2.84 0 0 1-3.566 1.829l-6-1.934-5.973-1.922a1.26 1.26 0 0 0-1.59.816 1.26 1.26 0 0 0 .817 1.59q2.983.96 5.972 1.926 2.994.968 6 1.934a5.37 5.37 0 0 0 6.746-3.461c.149-.469.235-.946.254-1.422l11.625-6.328a2.85 2.85 0 0 1 3.852 1.133c.363.664.445 1.43.227 2.16m-18.57-39.442c4.456 0 8.085-3.629 8.085-8.086 0-4.46-3.629-8.09-8.086-8.09-4.46 0-8.086 3.63-8.086 8.09 0 4.457 3.625 8.086 8.086 8.086m0-13.648c3.062 0 5.554 2.496 5.554 5.562a5.56 5.56 0 0 1-5.555 5.555A5.56 5.56 0 0 1 42.31 8.11a5.566 5.566 0 0 1 5.558-5.562m0 0"/></g></svg>
